svg/Pictogram/pictograms-nps-land-exercise-fitness.svg

<svg xmlns="http://www.w3.org/2000/svg" width="123.55" height="123.54" viewBox="-0.258 -0.548 123.547 123.539" enable-background="new -0.258 -0.548 123.547 123.539"><path d="m109.65 123.39c8.148 0 14.766-6.617 14.766-14.766v-94.02c0-8.156-6.617-14.742-14.766-14.742h-94c-8.156 0-14.773 6.586-14.773 14.742v94.02c0 8.148 6.617 14.766 14.773 14.766h94"/><path d="m15.648 2.371c-6.766 0-12.273 5.492-12.273 12.242v94.02c0 6.773 5.508 12.273 12.273 12.273h94c6.758 0 12.281-5.5 12.281-12.273v-94.02c0-6.75-5.523-12.242-12.281-12.242h-94"/><g fill="#fff"><path d="m85.65 29.504c4.102 0 7.422-3.32 7.422-7.422 0-4.078-3.32-7.398-7.422-7.398-4.078 0-7.398 3.32-7.398 7.398 0 4.102 3.32 7.422 7.398 7.422"/><path d="m91.16 31.17h-10.812l-18.438-18.438c-1.438-1.508-3.828-1.586-5.336-.117-1.516 1.438-1.586 3.828-.148 5.344l19.258 19.289v63.906c0 2.32 1.852 4.18 4.148 4.18 2.32 0 4.172-1.859 4.172-4.18v-34.656h3.375l.023 34.656c0 2.32 1.875 4.18 4.172 4.18s4.148-1.859 4.148-4.18l-.023-63.906 19.266-19.289c1.438-1.516 1.367-3.906-.148-5.344-1.516-1.469-3.906-1.391-5.344.117l-18.313 18.438"/><path d="m51.984 59.36c-1.125-1.148-2.656-1.828-4.367-1.828h-15.515c-1.711 0-3.25.68-4.344 1.828l-15.555 15.547c-1.438 1.516-1.391 3.906.125 5.344 1.508 1.445 3.93 1.398 5.344-.117l12.06-12.05v16.1h-13.531c-2.484 0-4.492 2.01-4.492 4.5 0 1.289.492 2.438 1.367 3.266l15.234 15.234c1.344 1.977 3.984 2.617 6.086 1.391 2.219-1.266 2.953-4.078 1.68-6.273l-8.688-8.664.172.023h24.961l-8.719 8.664c-1.242 2.203-.508 5.01 1.688 6.281 2.102 1.219 4.758.578 6.102-1.398l15.226-15.235c.883-.828 1.367-1.977 1.367-3.266 0-2.492-2-4.492-4.492-4.492h-13.492v-15.938l11.836 11.883c1.438 1.516 3.828 1.562 5.344.117 1.516-1.438 1.562-3.828.125-5.344l-15.524-15.57"/><path d="m40.01 55.949c4.094 0 7.391-3.32 7.391-7.398 0-4.102-3.297-7.398-7.391-7.398-4.078 0-7.398 3.297-7.398 7.398-.0001 4.078 3.32 7.398 7.398 7.398"/></g></svg>

<?xml version="1.0" encoding="iso-8859-1"?>
<!-- Generator: Adobe Illustrator 13.0.2, SVG Export Plug-In . SVG Version: 6.00 Build 14948)  -->
<!DOCTYPE svg PUBLIC "-//W3C//DTD SVG 1.1//EN" "http://www.w3.org/Graphics/SVG/1.1/DTD/svg11.dtd">
<svg version="1.1" id="Layer_1" xmlns="http://www.w3.org/2000/svg" xmlns:xlink="http://www.w3.org/1999/xlink" x="0px" y="0px"
	 width="123.547px" height="123.539px" viewBox="-0.258 -0.548 123.547 123.539"
	 style="enable-background:new -0.258 -0.548 123.547 123.539;" xml:space="preserve">
<g>
	<path d="M109.648,123.395c8.148,0,14.766-6.617,14.766-14.766V14.613c0-8.156-6.617-14.742-14.766-14.742h-94
		c-8.156,0-14.773,6.586-14.773,14.742v94.016c0,8.148,6.617,14.766,14.773,14.766H109.648z"/>
	<path d="M15.648,2.371c-6.766,0-12.273,5.492-12.273,12.242v94.016c0,6.773,5.508,12.273,12.273,12.273h94
		c6.758,0,12.281-5.5,12.281-12.273V14.613c0-6.75-5.523-12.242-12.281-12.242H15.648z"/>
	<path style="fill:#FFFFFF;" d="M85.648,29.504c4.102,0,7.422-3.32,7.422-7.422c0-4.078-3.32-7.398-7.422-7.398
		c-4.078,0-7.398,3.32-7.398,7.398C78.25,26.184,81.57,29.504,85.648,29.504z"/>
	<path style="fill:#FFFFFF;" d="M91.164,31.168H80.352L61.914,12.73c-1.438-1.508-3.828-1.586-5.336-0.117
		c-1.516,1.438-1.586,3.828-0.148,5.344l19.258,19.289v63.906c0,2.32,1.852,4.18,4.148,4.18c2.32,0,4.172-1.859,4.172-4.18V66.496
		h3.375l0.023,34.656c0,2.32,1.875,4.18,4.172,4.18s4.148-1.859,4.148-4.18l-0.023-63.906l19.266-19.289
		c1.438-1.516,1.367-3.906-0.148-5.344c-1.516-1.469-3.906-1.391-5.344,0.117L91.164,31.168z"/>
	<path style="fill:#FFFFFF;" d="M51.984,59.363c-1.125-1.148-2.656-1.828-4.367-1.828H32.102c-1.711,0-3.25,0.68-4.344,1.828
		L12.203,74.91c-1.438,1.516-1.391,3.906,0.125,5.344c1.508,1.445,3.93,1.398,5.344-0.117l12.062-12.055v16.102H16.203
		c-2.484,0-4.492,2.008-4.492,4.5c0,1.289,0.492,2.438,1.367,3.266l15.234,15.234c1.344,1.977,3.984,2.617,6.086,1.391
		c2.219-1.266,2.953-4.078,1.68-6.273l-8.688-8.664l0.172,0.023h24.961l-8.719,8.664c-1.242,2.203-0.508,5.008,1.688,6.281
		c2.102,1.219,4.758,0.578,6.102-1.398L66.82,91.973c0.883-0.828,1.367-1.977,1.367-3.266c0-2.492-2-4.492-4.492-4.492H50.203
		V68.277L62.039,80.16c1.438,1.516,3.828,1.562,5.344,0.117c1.516-1.438,1.562-3.828,0.125-5.344L51.984,59.363z"/>
	<path style="fill:#FFFFFF;" d="M40.008,55.949c4.094,0,7.391-3.32,7.391-7.398c0-4.102-3.297-7.398-7.391-7.398
		c-4.078,0-7.398,3.297-7.398,7.398C32.609,52.629,35.93,55.949,40.008,55.949z"/>
</g>
</svg>
